X:1
T:Title
%%score { ( 1 3 ) | 2 }
L:1/8
M:3/4
K:Bb
V:1 treble nm="Grand Piano"
V:3 treble 
V:2 bass 
V:1
 z2 z2[Q:1/4=88] [DF]2 | [DB]3 [DB] [FA][EG] | [EG]2 [DF]2 [DF]F | c3 =B c_d | d4 [Fd]2 | %5
 [^Fd]3 [Fc] [FB][FA] | dG G2 G2 | [=Ec]3 [Ed] [Ec][Ed] | c4 F2 | [Ff]3 [Fd] [EFc][DFB] | %10
 BA A2 F2 | [Ge]3 [Ge] [Fd][=E_d] | [Fd]4 d2 | d3 d ed | [Fd][Ec] [EG]2 G2 | F3 d dc | %16
[M:2/4] [DB]4 |[M:1/4] [DB]2 |[M:3/4] [Fd]3 [Fd] [Ec][DB] | [Fd]2 [Fd]2 [^FB]2 | %20
 [GB]3 [Gc] [GB][EG] | [DF]4 [DF]2 | [EG]3 [FA] [FB]c |[M:7/8] dB [Ff]3 [Ge]2 |[M:3/4] d3 B Bc | %25
[M:2/4] [DFB]4 |] %26
V:2
 z2 z2 [B,,B,]2 | [B,,F,]3 [B,,F,] [B,,B,][B,,B,] | [B,,B,]2 [B,,B,]2 B,,D, | %3
 [F,A,E]3 [F,_A,D] [F,=A,E][F,A,=E] | [B,F]4 [B,,B,]2 | [D,A,]3 [D,A,] [D,D][D,C] | %6
 [G,B,G][G,B,D] [G,B,D]2 [G,B,F]2 | [C,G,]3 [C,B,] [C,B,][C,B,] | [F,A,F]4 [E,C]2 | %9
 [D,B,]3 [B,,B,] B,,B,, | [F,CE][F,CE] [F,CE]2 [F,A,]2 | [F,A,]3 [F,A,] [F,B,][F,B,] | %12
 [B,,B,]4[K:treble] [B,F]2 | [G,=B,F]3 [G,B,F] [G,CF][G,B,F] | [C,G,][C,G,] [C,C]2 [=E,B,_D]2 | %15
 [F,B,D]3 [F,B,F] [F,A,F][F,A,E] |[M:2/4] [B,,B,]4 |[M:1/4] [B,,B,]2 | %18
[M:3/4] [B,,B,]3 [B,,B,] [B,,F,][B,,F,] | [B,,B,]2 [B,,B,]2 [D,B,]2 | [E,E]3 [E,E] [E,E][E,B,] | %21
 [B,,B,]4 [B,,B,]2 | [E,B,]3 [E,C] [D,B,][K:treble][F,A,F] | %23
[M:7/8] [B,F][G,DG][K:bass] [D,B,]3 [E,B,]2 |[M:3/4] [F,B,F]3 [F,DF] [F,DF][F,EF] |[M:2/4] B,,4 |] %26
V:3
 x6 | x6 | z2 z2 B,2 | x6 | x6 | x6 | x6 | x6 | x6 | x6 | x6 | x6 | x6 | x6 | x6 | x6 |[M:2/4] x4 | %17
[M:1/4] x2 |[M:3/4] x6 | x6 | x6 | x6 | x6 |[M:7/8] x7 |[M:3/4] x6 |[M:2/4] x4 |] %26

